!!!!SEGMENT: pl-kk--kk-i-175_anonim--haec-dies-quam-fecit-dominus.krn
!!!cenid: 17xx:2167
!!!COM: Anonim
!!!COM-rismid: pe30004985
!!!CDT:
!!!CNT:
!!!OTL: Haec dies quam fecit Dominus
!!!PDT:
!!!AGN: Sacred
!!!SMS-siglum: PL-Kk
!!!SMS-shelfmark: Kk.I.175
!!!SMS-shelfwork: W
!!!SMS-variant: Baſso.: PL-Kk Kk.I.175:0007
!!!SMS-altvar: Baſso.: PL-Kk Kk.I.175:0009
!!!NIFC-rismid: 1001144465
!!!URL-scan: http://repozytorium.nifc.pl/skany/pl-kk-nut--i-175
!!!ONB-nifc: UWAGA: Na karcie 1r brak nazwy głosu sopranowego
**kern	**text	**kern	**text	**text	**kern	**text	**kern	**text
*part4	*part4	*part3	*part3	*part3	*part2	*part2	*part1	*part1
*staff4	*staff4	*staff3	*staff3	*staff3	*staff2	*staff2	*staff1	*staff1
*group1	*	*group1	*	*	*group1	*	*group1	*
*Iempty	*	*Itenor	*	*	*Ialto	*	*Ivox	*
*I"Baſso.	*	*I"Tenore.	*	*	*I"Alto.	*	*I"[Canto.]	*
*I'B	*	*I'T	*	*	*I'A	*	*I'[S]	*
*clefF4	*	*clefC4	*	*	*clefC3	*	*clefC1	*
*k[]	*	*k[]	*	*	*k[]	*	*k[]	*
*C:	*	*C:	*	*	*C:	*	*C:	*
*M4/4	*	*M4/4	*	*	*M4/4	*	*M4/4	*
*met(c)	*	*met(c)	*	*	*met(c)	*	*met(c)	*
*all\right	*	*all\right	*	*	*all\right	*	*all\right	*
=1	=1	=1	=1	=1	=1	=1	=1	=1
*	*	*2\right	*	*	*2\right	*	*2\right	*
!LO:TX:a:B:t=Allo&colon;	!	!	!	!	!	!	!	!
2C/	Haec	2c\	Haec	.	2c\	Haec	2cc\	Haec
4E\	.	4e\	.	.	4e\	.	4ee\	.
4G\	.	4g\	.	.	4g\	.	4gg\	.
=2	=2	=2	=2	=2	=2	=2	=2	=2
8E/L	Di-	8.e\	Di[[e]]-	.	8.e\L	Di-	8.ee\L	Di-
8C/J	.	.	.	.	.	.	.	.
.	.	16c\	.	.	16c\Jk	.	16cc\Jk	.
4C/	-es	4c\	-es	.	4c\	-es.	4cc\	-es
2r	.	2r	.	.	2r	.	2r	.
=3	=3	=3	=3	=3	=3	=3	=3	=3
4G\	quam	4d\	Qua(m)	.	4b\	Quam	4ff\	qua(m)
8.G\	fe-	8.d\	fe-	.	8.b\	fe-	8.ff\	fe-
16G\	-cit	16d\	-cit	.	16b\	-cit	16ff\	-cit
2G\	Do-	(4d\	Do-	.	4b\	Do-	4ff\	Do-
!	!	!	!	!	!LO:N:vis=8	!	!	!
.	.	8.d\L	.	.	8.b\L	.	8ff\L	.
.	.	.	.	.	.	.	8ff\J	-mi-
.	.	16d\Jk)	-mi-	.	16b\Jk	-mi-	.	.
=4	=4	=4	=4	=4	=4	=4	=4	=4
8.c\	.	2c\	-nus	.	2g\	-nus	2ee\	-nus
16C/	-mi-	.	.	.	.	.	.	.
4C/	-nus	.	.	.	.	.	.	.
2r	.	2r	.	.	2r	.	2r	.
!LO:LB:g=original	!	!	!	!	!	!	!	!
=5	=5	=5	=5	=5	=5	=5	=5	=5
4c\	quam	2c\	Haec	.	2g\	Haec	2ee\	Haec
4B\	.	.	.	.	.	.	.	.
4A\	fe-	4c\	di-	.	4a\	Di-	4ee\	di-
4F#X\	-cit	4c\	-es	.	4a\	-es	4ee\	-es
!	!	!	!	!	!LO:LB:g=original	!	!	!
=6	=6	=6	=6	=6	=6	=6	=6	=6
!	!LO:SIC:v:l:s=Quam	!	!	!	!	!	!LO:SIC:v:l:s=quam	!
4.G\	Dam	4.B\	Qua(m)	.	2g\	Quam	2dd\	qua
8BB/	.	8d\	.	.	.	.	.	.
!	!	!LO:LB:g=original	!	!	!	!	!	!
4C/	fe-	4e\	fe-	.	4e\	fe-	8dd#X\L	fe-
.	.	.	.	.	.	.	8ee\J	.
4C/	-cit	4e\	-cit	.	4e\	-cit	8cc\L	-cit
.	.	.	.	.	.	.	8a\J	.
!	!	!	!	!	!	!	!LO:LB:g=original	!
=7	=7	=7	=7	=7	=7	=7	=7	=7
*2\right	*	*	*	*	*	*	*	*
2.D\	Do-	2.d\	Do-	.	2.d\	Do-	2.g\	Do-
.	.	.	.	.	.	.	8qqb/	.
4D\	-mi-	4c\	-mi-	.	4f\	-mi-	4a\	-mi-
=8	=8	=8	=8	=8	=8	=8	=8	=8
4GG/	-nus	4B\	-nus	.	4e\	-nus	4g\	-nus
4rAA	.	4rF	.	.	2g\	fe-	4r	.
2r	.	2r	.	.	.	.	2r	.
.	.	.	.	.	4g\	-cit	.	.
=9	=9	=9	=9	=9	=9	=9	=9	=9
4.B\	quam	(4.d\	quam	.	2g\	Quam	1r	.
8c\	.	8e\)	.	.	.	.	.	.
4d\	fe-	4f\	fe-	.	4g\	fe-	.	.
4c\	-cit	4e\	-cit	.	4g\	-cit	.	.
!LO:LB:g=original	!	!	!	!	!	!	!	!
=10	=10	=10	=10	=10	=10	=10	=10	=10
4.c\	Do-	4.e\	Do-	.	4.g\	Do-	2gg\	Quam
8G\	-mi-	8d\	-mi-	.	8g\	-mi-	.	.
4E\	-nus	4c\	-nus	.	4g\	-nus	8ff\L	fe-
.	.	.	.	.	.	.	8ee\J	.
4r	.	4r	.	.	4rA	.	8dd\L	-cit
.	.	.	.	.	.	.	8cc\J	.
!	!	!	!	!	!LO:LB:g=original	!	!	!
=11	=11	=11	=11	=11	=11	=11	=11	=11
4.B\	quam	(4.d\	quam	.	2g\	Quam	2r	.
8c\	.	8e\)	.	.	.	.	.	.
4d\	fe-	4f\	fe-	.	4g\	fe-	4r	.
4c\	-cit	4e\	-cit	.	4g\	-cit	4gg\	quam
=12	=12	=12	=12	=12	=12	=12	=12	=12
4.c\	Do-	4.e\	Do-	.	4.g\	Do-	2gg\	fe-
8G\	-mi-	8d\	-mi-	.	8g\	-mi-	.	.
4E\	-nus	4c\	-nus	.	4g\	-nus	8ff\L	.
.	.	.	.	.	.	.	8ee\J	.
4r	.	4rF	.	.	4rA	.	8dd\L	-cit
.	.	.	.	.	.	.	8cc\J	.
!	!	!LO:LB:g=original	!	!	!	!	!	!
=13	=13	=13	=13	=13	=13	=13	=13	=13
4r	.	4r	.	.	2g\	Quam	2cc\	Do-
4c\	quam	2c\	Quam	.	.	.	.	.
4Bn\	fe-	.	.	.	4g\	fe-	4dd\	-mi-
4B-X\	-cit	4c\	fecit	.	4g\	-cit	4ee\	-nus
!	!	!	!	!	!	!	!LO:LB:g=original	!
=14	=14	=14	=14	=14	=14	=14	=14	=14
4.A\	Do-	4.c\	Do-	.	4.f\	Do-	4.ff\	fe-
8G\	-mi-	8c\	-mi-	.	8g\	-mi-	8gg\	.
4F\	-nus	4c\	-nus	.	4a\	-nus	4aa\	-cit
4rAA	.	4r	.	.	4rA	.	4r	.
!LO:LB:g=original	!	!	!	!	!	!	!	!
=15	=15	=15	=15	=15	=15	=15	=15	=15
2G\	quam	2c\	quam	.	2g\	Quam	2ee\	qua(m)
4GG/	fe-	4B\	fe-	.	4g\	fe-	4dd\	fe-
8GG/	-cit	8B\	-cit	.	8g\	-cit	8dd\	-cit
8GG/	quam	8B\	qua(m)	.	8g\	quam	8dd\	qua(m)
!	!	!	!	!	!LO:LB:g=original	!	!	!
=16	=16	=16	=16	=16	=16	=16	=16	=16
2C/	fe-	2c\	fe-	.	2c\	fe-	2cc\	fe-
4E\	.	4e\	.	.	4e\	.	4ee\	.
4G\	-cit	4g\	-cit	.	4g\	-cit	4gg\	-cit
=17	=17	=17	=17	=17	=17	=17	=17	=17
8.E/	Do-	8.e\	Do-	.	8.e\	Do-	8.ee\	Do-
16C/	-mi-	16c\	-mi-	.	16c\	-mi-	16cc\	-mi-
4C/	-nus	4c\	-nus	.	4c\	-nus	4cc\	-nus
!	!	!	!	!	!LO:TX:t=P:problem:skreślona nuta	!	!	!
4.G\	Do-	2d\	Domi-	.	4.b\	Do-	2ff\	Domi-
8G\	-mi-	.	.	.	8b\	-mi-	.	.
=18	=18	=18	=18	=18	=18	=18	=18	=18
4C/	-nus	4c\	-nus	.	4g\	-nus.	4ee\	-nus
4r	.	4rF	.	.	4rA	.	4r	.
2r	.	2r	.	.	2r	.	2r	.
!LO:LB:g=original	!	!LO:LB:g=original	!	!	!	!	!LO:LB:g=original	!
=19||	=19||	=19||	=19||	=19||	=19||	=19||	=19||	=19||
*k[b-]	*	*k[b-]	*	*	*k[b-]	*	*k[b-]	*
*M3/4	*	*M3/4	*	*	*M3/4	*	*M3/4	*
!LO:TX:a:B:t=Andan\nte.	!	!	!	!	!	!	!	!
4rAA	.	4rF	.	.	4a\	E-	4cc\	E-
=20	=20	=20	=20	=20	=20	=20	=20	=20
!LO:TX:a:t=1.	!	!	!	!	!	!	!	!
2.r	.	2.r	.	.	4.a\	.	4.cc\	.
.	.	.	.	.	8f\L	.	8a\	.
.	.	.	.	.	8e\	-xul-	8g\L	-xul-
.	.	.	.	.	8g\J	.	8cc\J	.
=21	=21	=21	=21	=21	=21	=21	=21	=21
4rAA	.	4rF	.	.	8g\L	-te-	8.b-\L	-te-
.	.	.	.	.	8f\J	.	.	.
.	.	.	.	.	.	.	16a\Jk	.
4r	.	4rF	.	.	4f\	-mur	4a\	-mur
4A\	E-	4c\	E-	.	4r	.	4r	.
!	!	!	!	!	!LO:LB:g=original	!	!	!
=22	=22	=22	=22	=22	=22	=22	=22	=22
4.A\	.	4.c\	.	.	2.r	.	2.r	.
8F\	.	8A\	.	.	.	.	.	.
8E\L	-xul-	8G\L	-xul-	.	.	.	.	.
8A\J	.	8c\J	.	.	.	.	.	.
=23	=23	=23	=23	=23	=23	=23	=23	=23
8.G\L	-te-	(8.B-\	-te-	.	4rA	.	4re	.
16F\Jk	.	16A\)	.	.	.	.	.	.
4F\	-mur	4A\	-mur	.	4r	.	4r	.
!	!	!LO:TX:t=P:problem:skreślona belka 8	!	!	!	!	!	!
8E\	et	8c\L	e-	.	8g\	E-	8b-\	E-
8F\	le-	8c\J	-xul-	.	8f\	-xul-	8a\	-xul-
=24	=24	=24	=24	=24	=24	=24	=24	=24
4C/	-te-	4c\	-te-	.	8f\L	-te-	8a\L	-te-
.	.	.	.	.	8e\J	.	8g\J	.
4C/	-mur	4c\	-mur	.	4e\	-mur	4g\	-mur
8C/	e-	8c\	et	.	8a\	et	8cc\L	et
8C/	-xul-	8c\	le-	.	8g\	le-	8b-\J	le-
!LO:LB:g=original	!	!	!	!	!	!	!	!
=25	=25	=25	=25	=25	=25	=25	=25	=25
4F\	-te-	4c\	-te-	.	8g\L	-te-	8b-\L	-te-
.	.	.	.	.	8f\J	.	8a\J	.
4F\	-mur	4c\	-mur	.	4f\	-mur	4a\	-mur
8A\	et	8f\	et	.	8f\	et	8cc\	et
8A\	le-	8f\	le-	.	8f\	le-	8cc\	le-
!	!	!LO:LB:g=original	!	!	!	!	!LO:LB:g=original	!
=26	=26	=26	=26	=26	=26	=26	=26	=26
.	.	.	.	.	.	.	8qqee/	.
8B-\	-te-	8d\	-te-	.	8b-\	-te-	8dd\	-te-
16B-\	-mur	16d\	-mur	.	16a\	-mur	16cc\	-mur
!	!	!	!	!	!LO:SIC:v:l:s=in	!	!	!
16B-\	in	16d\	in	.	16g\	i	16b-\	in
4c\	e-	4.c\	e-	.	4f\	e-	4a\	ae-
4C/	.	.	.	.	4e\	.	4g\	.
.	.	8B-\	.	.	.	.	.	.
=27	=27	=27	=27	=27	=27	=27	=27	=27
4F\	-a	4A\	-a	.	4f\	-a.	4f/	-a
4r	.	4r	.	.	4rA	.	4r	.
4r	.	4r	.	.	4rA	.	4r	.
!	!	!	!	!	!LO:LB:g=original	!	!	!
=28||	=28||	=28||	=28||	=28||	=28||	=28||	=28||	=28||
*k[]	*	*k[]	*	*	*k[]	*	*k[]	*
*M3/4	*	*M3/4	*	*	*M3/4	*	*M3/4	*
!	!	!	!LO:TX:t=P:problem:zmiana kolejności wersów tekstu	!	!	!	!	!
4C/	al-	4c\	al-	[[at]]	4e\	Al-	4cc\	al-
4C/	.	4e\	.	.	4e\	.	4g\	.
4C/	-le-	4c\	-le-	.	4g\	-le-	4ee\	-le-
=29	=29	=29	=29	=29	=29	=29	=29	=29
4G\	-lu-	8B\L	-lu-	.	8g\L	-lu-	8dd\L	-lu-
.	.	8d\J	.	.	8e\J	.	8b\J	.
4B\	-ia	4f\	-ia	.	4e\	-ia	4g\	-ia
8r	.	8r	.	.	8r	.	8r	.
8G\	al	8d\	a	.	8g\	al-	8ff\	al-
!LO:LB:g=original	!	!	!	!	!	!	!	!
=30	=30	=30	=30	=30	=30	=30	=30	=30
8c\	al-	8.c\	al-	.	8.cc\	.	8ee\L	.
8F\	-le-	.	.	.	.	.	8dd\J	.
.	.	16d\	-le-	.	16a\	-le-	.	.
4G\	-lu-	4e\	-lu-	.	2g\	-lu-	4cc\	-le-
4GG/	.	4d\	-[[lu]]-	.	.	.	4b\	-lu-
=31	=31	=31	=31	=31	=31	=31	=31	=31
4C/	-ia	4e\	-ia	.	4g\	-ia	4cc\	-ia
4rAA	.	4rF	.	.	4r	.	4r	.
4rAA	.	4rF	.	.	4b\	al-	4dd\	al-
!	!	!LO:LB:g=original	!	!	!	!	!LO:LB:g=original	!
=32	=32	=32	=32	=32	=32	=32	=32	=32
2.r	.	2.r	.	.	4b\	.	4dd\	.
.	.	.	.	.	4g\	.	4b\	.
!	!	!	!	!	!LO:SIC:v:l:s=-le-	!	!	!
.	.	.	.	.	4d\	-lu-	4g\	-le-
=33	=33	=33	=33	=33	=33	=33	=33	=33
4rAA	.	4rF	.	.	8d\L	-lu-	8a\L	-lu-
.	.	.	.	.	8g\J	.	8g\J	.
4r	.	4rF	.	.	4g\	-ia	4g\	-ia
4B\	al-	4d\	al-	.	4r	.	4re	.
!	!	!	!	!	!LO:LB:g=original	!	!	!
=34	=34	=34	=34	=34	=34	=34	=34	=34
4B\	.	4d\	.	.	2.r	.	2.r	.
4G\	.	4B\	.	.	.	.	.	.
4D\	-le-	4G\	-le-	.	.	.	.	.
=35	=35	=35	=35	=35	=35	=35	=35	=35
8D\L	-lu-	8A/L	-lu-	.	4r	.	4re	.
8G\J	.	8G/J	.	.	.	.	.	.
4G\	-ia	4G/	-ia	.	4r	.	4re	.
8B\	al-	8.d\	al-	.	8g\	al-	8ff\	al-
!	!	!	!	!	!LO:SIC:v:l:s=-le-	!	!	!
8B\	-le-	.	.	.	8g\	-e-	8ff\	-le-
.	.	16d\	-le-	.	.	.	.	.
!LO:LB:g=original	!	!	!	!	!	!	!	!
=36	=36	=36	=36	=36	=36	=36	=36	=36
8c\	-lu-	8.c\	-lu-	.	8.g\	-lu-	8.ee\	-lu-
8F\	-ia	.	.	.	.	.	.	.
.	.	16d\	-ia	.	16a\	-ia	16dd\	-ia
4G\	al-	4e\	al-	.	4g\	al-	4cc\	al-
4G\	-le-	4d\	-le-	.	4g\	-le-	4b\	-le-
=37	=37	=37	=37	=37	=37	=37	=37	=37
4c\	-lu-	8f\L	-lu-	.	4g\	-lu-	8dd\L	-lu-
.	.	8e\J	.	.	.	.	8cc\J	.
4C/	-ia.	4e\	-ia.	.	4g\	-ia.	4cc\	-ia.
4rAA	.	4rF	.	.	4rA	.	4re	.
==	==	==	==	==	==	==	==	==
*-	*-	*-	*-	*-	*-	*-	*-	*-
!!!system-decoration: [g1]
!!!RDF**kern: > = above
!!!RDF**kern: < = below
!!!AIN: 1 alto 1 empty 1 tenor 1 vox
!!!ENC: Andrzej Kubiczek
!!!END: 2021-04-08
!!!ENC: Berenika Jozajtis
!!!END: 2021-03-18
